X:1
T: Humours of Glen
C:
R:Jig
Q:180
K:Am
M:6/8
L:1/16
|:E2|A2cBA^G A2E2E2|E2c2B2 c2E2E2|A2cBA^G A2E2c2|D2E2^G2 A4E2|
A2cBA^G A2E2E2|E2c2B2 c2E2E2|F2GFED E2FEDC|D2E2^G2 A4:|
|:cA|GAc2c2 c4ed|cBcdef g2e2c2|f2gfed e2c2A2|G2E2^G2 A4:|
|:cA|G2E2E2 c2E2E2|G2E2E2 A2B2c2|G2E2a2 AGFEDC|D2E2^G2 A4cB|
G2E2E2 A2F2F2|G2E2c2 AGFEDC|f2gfed e2c2A2|G2E2^G2 A4:|
